icons/Color/scalable/gimp-vchain-broken.svg

<svg height="24" viewBox="0 0 24 24" width="24" xmlns="http://www.w3.org/2000/svg" xmlns:xlink="http://www.w3.org/1999/xlink"><linearGradient id="a"><stop offset="0" stop-color="#888a85"/><stop offset=".5" stop-color="#eeeeec"/><stop offset="1" stop-color="#cecec8"/></linearGradient><linearGradient id="b" gradientTransform="matrix(.70828848 0 0 .55938517 11.473979 -.10075)" gradientUnits="userSpaceOnUse" x1="-16.120106" x2="-.81032" xlink:href="#a" y1=".468941" y2="12.572748"/><linearGradient id="c" gradientTransform="matrix(1.6044074 0 0 1.5859698 -1.473434 -1.052968)" gradientUnits="userSpaceOnUse" x1="7.461398" x2="9.334128" xlink:href="#a" y1="8.230274" y2="8.230274"/><g transform="translate(0 8)"><path d="m0-7.997606h24v23.895996h-24z" opacity="0"/><g stroke="#555753"><path d="m8.3476562.23632812s-1.577383.0639087-2.0585937.48242188c-.8964841.7796801-.7636719 3.1015625-.7636719 3.1015625s-.1159983 2.0753155.7636719 2.831555c.4952643.4257715 2.109375.4824219 2.109375.4824219 0-.0000001 1.7641675-.02518 2.3125005-.4824219.835865-.6970091.738281-2.6303831.738281-2.6303831s.222677-2.4821204-.738281-3.3027344c-.552556-.47185682-2.3632818-.48242188-2.3632818-.48242188zm-1.1383664 1.80664068h2.5716451v3.3042112h-2.5716451z" fill="url(#b)" stroke-width=".475804" transform="matrix(1.55542455513 0 0 1.45429592292 -1.21350635725 -7.99765924464)"/><path d="m8.3476562.42625754s-1.577383.0639087-2.0585937.48242188c-.8964841.77968008-.7636719 2.91163308-.7636719 2.91163308s-.1159983 2.2652449.7636719 3.0214844c.4952643.4257715 2.109375.4824219 2.109375.4824219 0-.0000001 1.7641675-.02518 2.3125005-.4824219.835865-.6970091.738281-2.8203125.738281-2.8203125s.222677-2.292191-.738281-3.11280498c-.552556-.47185682-2.3632818-.48242188-2.3632818-.48242188zm-1.1383664 1.80664066h2.5716451v3.3042112h-2.5716451z" fill="url(#b)" stroke-width=".475804" transform="matrix(1.55542455513 0 0 1.45429592292 -1.21350635725 5.00235175536)"/><path d="m10.500001 7.2550364-.0078 2.9843746 3.005915.0073.01318-3.0196456zm-.0078 6.5211776.01563 3 2.999999.0078v-2.992188z" fill="url(#c)" stroke-linejoin="round" transform="translate(0 -8)"/></g></g></svg>

<?xml version="1.0" encoding="UTF-8" standalone="no"?>
<!-- Created with Inkscape (http://www.inkscape.org/) -->

<svg
   xmlns:dc="http://purl.org/dc/elements/1.1/"
   xmlns:cc="http://creativecommons.org/ns#"
   xmlns:rdf="http://www.w3.org/1999/02/22-rdf-syntax-ns#"
   xmlns:svg="http://www.w3.org/2000/svg"
   xmlns="http://www.w3.org/2000/svg"
   xmlns:xlink="http://www.w3.org/1999/xlink"
   xmlns:sodipodi="http://sodipodi.sourceforge.net/DTD/sodipodi-0.dtd"
   xmlns:inkscape="http://www.inkscape.org/namespaces/inkscape"
   inkscape:export-ydpi="90.000000"
   inkscape:export-xdpi="90.000000"
   inkscape:export-filename="/home/jimmac/src/cvs/gnome/gimp/themes/Default/images/stock-layers-16.png"
   width="24"
   height="24"
   id="svg11300"
   sodipodi:version="0.32"
   inkscape:version="0.92.3 (2405546, 2018-03-11)"
   sodipodi:docname="gimp-vchain-broken.svg"
   version="1.0"
   viewBox="0 0 24 24">
  <sodipodi:namedview
     inkscape:cy="8.7653772"
     inkscape:cx="16.980875"
     inkscape:zoom="28.963094"
     inkscape:window-height="990"
     inkscape:window-width="1920"
     inkscape:pageshadow="2"
     inkscape:pageopacity="0.0"
     borderopacity="0.17254902"
     bordercolor="#666"
     pagecolor="#ffffff"
     id="base"
     inkscape:showpageshadow="false"
     showborder="true"
     inkscape:window-x="0"
     inkscape:window-y="27"
     inkscape:current-layer="layer1"
     width="16px"
     height="16px"
     showgrid="true"
     inkscape:window-maximized="1"
     inkscape:document-units="px"
     inkscape:snap-global="false">
    <inkscape:grid
       type="xygrid"
       id="grid4383" />
  </sodipodi:namedview>
  <defs
     id="defs3">
    <linearGradient
       id="linearGradient3473">
      <stop
         id="stop3475"
         offset="0"
         style="stop-color:#888a85;stop-opacity:1" />
      <stop
         id="stop3481"
         offset="0.5"
         style="stop-color:#eeeeec;stop-opacity:1;" />
      <stop
         id="stop3477"
         offset="1"
         style="stop-color:#cecec8;stop-opacity:1;" />
    </linearGradient>
    <linearGradient
       inkscape:collect="always"
       xlink:href="#linearGradient3473"
       id="linearGradient4355-2-8-6-98"
       x1="-16.120106"
       y1="0.46894097"
       x2="-0.81032044"
       y2="12.572748"
       gradientUnits="userSpaceOnUse"
       gradientTransform="matrix(0.70828848,0,0,0.55938517,11.473979,-0.10075031)" />
    <linearGradient
       inkscape:collect="always"
       xlink:href="#linearGradient3473"
       id="linearGradient4397-05"
       x1="7.4613976"
       y1="8.2302742"
       x2="9.3341284"
       y2="8.2302742"
       gradientUnits="userSpaceOnUse"
       gradientTransform="matrix(1.6044074,0,0,1.5859698,-1.4734335,-1.0529675)" />
    <linearGradient
       inkscape:collect="always"
       xlink:href="#linearGradient3473"
       id="linearGradient12668"
       gradientUnits="userSpaceOnUse"
       gradientTransform="matrix(0.70828848,0,0,0.55938517,11.473979,-0.10075031)"
       x1="-16.120106"
       y1="0.46894097"
       x2="-0.81032044"
       y2="12.572748" />
  </defs>
  <sodipodi:namedview
     stroke="#ef2929"
     fill="#eeeeec"
     pagecolor="#ffffff"
     bordercolor="#666666"
     borderopacity="0.25490196"
     inkscape:pageopacity="0.0"
     inkscape:pageshadow="2"
     inkscape:zoom="1"
     inkscape:cx="-14.198652"
     inkscape:cy="-5.1663457"
     inkscape:current-layer="layer1"
     showgrid="false"
     inkscape:grid-bbox="true"
     inkscape:document-units="px"
     inkscape:showpageshadow="false"
     inkscape:window-width="872"
     inkscape:window-height="659"
     inkscape:window-x="403"
     inkscape:window-y="296"
     width="32px"
     height="32px"
     id="namedview73" />
  <metadata
     id="metadata4">
    <rdf:RDF>
      <cc:Work
         rdf:about="">
        <dc:format>image/svg+xml</dc:format>
        <dc:type
           rdf:resource="http://purl.org/dc/dcmitype/StillImage" />
        <dc:creator>
          <cc:Agent>
            <dc:title>Jakub Steiner</dc:title>
          </cc:Agent>
        </dc:creator>
        <dc:source>http://jimmac.musichall.cz</dc:source>
        <cc:license
           rdf:resource="http://creativecommons.org/licenses/by-sa/2.0/" />
        <dc:title />
      </cc:Work>
      <cc:License
         rdf:about="http://creativecommons.org/licenses/by-sa/2.0/">
        <cc:permits
           rdf:resource="http://web.resource.org/cc/Reproduction" />
        <cc:permits
           rdf:resource="http://web.resource.org/cc/Distribution" />
        <cc:requires
           rdf:resource="http://web.resource.org/cc/Notice" />
        <cc:requires
           rdf:resource="http://web.resource.org/cc/Attribution" />
        <cc:permits
           rdf:resource="http://web.resource.org/cc/DerivativeWorks" />
        <cc:requires
           rdf:resource="http://web.resource.org/cc/ShareAlike" />
      </cc:License>
    </rdf:RDF>
  </metadata>
  <g
     id="layer1"
     inkscape:label="Layer 1"
     inkscape:groupmode="layer"
     transform="translate(0,8)">
    <g
       style="display:inline"
       id="gimp-vchain-broken-24"
       inkscape:export-xdpi="90"
       inkscape:export-ydpi="90"
       inkscape:export-filename="/home/jehan/dev/src/gimp/icons/Color/24/gimp-vchain-broken.png">
      <rect
         y="-7.9976063"
         x="0"
         height="23.895996"
         width="24"
         id="rect4273-2"
         style="opacity:0;fill:#000000;fill-opacity:1;stroke:none;stroke-width:0.61922789;stroke-miterlimit:4;stroke-dasharray:none;stroke-opacity:1" />
      <g
         transform="matrix(1.6119907,0,0,-1.4925417,0.1431726,23.920414)"
         id="g4173-2-0" />
      <g
         transform="matrix(1.1016893,0,0,0.81351157,16.633402,-8.1441799)"
         id="g4326-1-5-9">
        <path
           sodipodi:nodetypes="cscscscscccccc"
           style="opacity:1;fill:url(#linearGradient12668);fill-opacity:1;stroke:#555753;stroke-width:0.47580397;stroke-miterlimit:4;stroke-dasharray:none;stroke-opacity:1"
           d="m 8.3476562,0.23632812 c 0,0 -1.577383,0.0639087 -2.0585937,0.48242188 -0.8964841,0.7796801 -0.7636719,3.1015625 -0.7636719,3.1015625 0,0 -0.1159983,2.0753155 0.7636719,2.831555 0.4952643,0.4257715 2.109375,0.4824219 2.109375,0.4824219 0,-1e-7 1.7641675,-0.02518 2.3125005,-0.4824219 0.835865,-0.6970091 0.738281,-2.6303831 0.738281,-2.6303831 0,0 0.222677,-2.4821204 -0.738281,-3.3027344 C 10.158382,0.24689318 8.3476562,0.23632812 8.3476562,0.23632812 Z M 7.2092898,2.0429688 H 9.7809349 V 5.34718 H 7.2092898 Z"
           transform="matrix(1.4118541,0,0,1.787677,-16.199584,0.18010901)"
           id="rect4317-8-2-58"
           inkscape:connector-curvature="0" />
      </g>
      <g
         transform="matrix(1.1016893,0,0,0.81351157,16.633402,4.8558312)"
         id="g4326-1-5-5-7">
        <path
           sodipodi:nodetypes="cscscscscccccc"
           style="opacity:1;fill:url(#linearGradient4355-2-8-6-98);fill-opacity:1;stroke:#555753;stroke-width:0.47580397;stroke-miterlimit:4;stroke-dasharray:none;stroke-opacity:1"
           d="m 8.3476562,0.42625754 c 0,0 -1.577383,0.0639087 -2.0585937,0.48242188 C 5.3925784,1.6883595 5.5253906,3.8203125 5.5253906,3.8203125 c 0,0 -0.1159983,2.2652449 0.7636719,3.0214844 0.4952643,0.4257715 2.109375,0.4824219 2.109375,0.4824219 0,-10e-8 1.7641675,-0.02518 2.3125005,-0.4824219 0.835865,-0.6970091 0.738281,-2.8203125 0.738281,-2.8203125 0,0 0.222677,-2.292191 -0.738281,-3.11280498 C 10.158382,0.4368226 8.3476562,0.42625754 8.3476562,0.42625754 Z M 7.2092898,2.2328982 H 9.7809349 V 5.5371094 H 7.2092898 Z"
           transform="matrix(1.4118541,0,0,1.787677,-16.199584,0.18010901)"
           id="rect4317-8-2-2-9"
           inkscape:connector-curvature="0" />
      </g>
      <path
         style="opacity:1;fill:url(#linearGradient4397-05);fill-opacity:1;stroke:#555753;stroke-width:1;stroke-linejoin:round;stroke-miterlimit:4;stroke-dasharray:none;stroke-opacity:1"
         d="m 10.500001,7.2550364 -0.0078,2.9843746 3.005915,0.0073 0.01318,-3.0196456 z m -0.0078,6.5211776 0.01563,3 2.999999,0.0078 v -2.992188 z"
         transform="translate(0,-8)"
         id="rect4357-8"
         inkscape:connector-curvature="0"
         sodipodi:nodetypes="cccccccccc" />
    </g>
  </g>
</svg>
